icons/agriculture_worker_alt.svg

<svg width="48" height="48" viewBox="0 0 48 48" fill="none" xmlns="http://www.w3.org/2000/svg">
<path fill-rule="evenodd" clip-rule="evenodd" d="M19.5 14C17.2909 14 15.5 12.2091 15.5 10C15.5 7.79086 17.2909 6 19.5 6C21.7091 6 23.5 7.79086 23.5 10C23.5 12.2091 21.7091 14 19.5 14ZM19.5 12C18.3954 12 17.5 11.1046 17.5 10C17.5 8.89543 18.3954 8 19.5 8C20.6046 8 21.5 8.89543 21.5 10C21.5 11.1046 20.6046 12 19.5 12Z" fill="black"/>
<path d="M13 22C13 20.8954 13.8954 20 15 20V24C13.8954 24 13 23.1046 13 22Z" fill="black"/>
<path fill-rule="evenodd" clip-rule="evenodd" d="M33 21.2361C32.4692 21.7111 31.7684 22 31 22H26V39C26 40.6569 24.6569 42 23 42C22.0444 42 21.1931 41.5532 20.6438 40.8571C20.2406 40.3463 20 39.7012 20 39L20 31H19L19 39C19 39.7012 18.7594 40.3463 18.3562 40.8571C17.8069 41.5532 16.9556 42 16 42C14.3431 42 13 40.6569 13 39V27.7178C11.4371 26.9978 9 24.91 9 21.5714C9 17.3636 12.8712 16 13.9845 16H31C31.7684 16 32.4692 16.2889 33 16.7639V15H32C30.3431 15 29 13.6569 29 12V6H31V12C31 12.5523 31.4477 13 32 13H33V6H35V13H36C36.5523 13 37 12.5523 37 12V6H39V12C39 13.6569 37.6569 15 36 15H35V41C35 41.5523 34.5523 42 34 42C33.4477 42 33 41.5523 33 41V21.2361ZM13.8369 25.9013L15 26.4371V39C15 39.5523 15.4477 40 16 40C16.5523 40 17 39.5523 17 39L17 29H22L22 39C22 39.5523 22.4477 40 23 40C23.5523 40 24 39.5523 24 39V20H31C31.5523 20 32 19.5523 32 19C32 18.4477 31.5523 18 31 18H13.9845C13.9933 18 13.9907 18.0004 13.9772 18.0025C13.9284 18.0101 13.7375 18.04 13.4344 18.1529C13.0818 18.2843 12.6793 18.4915 12.3079 18.7824C11.6053 19.3326 11 20.1769 11 21.5714C11 23.8541 12.6932 25.3744 13.8369 25.9013Z" fill="black"/>
</svg>

<svg
  xmlns="http://www.w3.org/2000/svg"
  width="24"
  height="24"
  viewBox="0 0 24 24"
  fill="none"
  stroke="currentColor"
  stroke-width="2"
  stroke-linecap="round"
  stroke-linejoin="round"
>
  <path
    fill-rule="evenodd"
    d="M19.5 14a4 4 0 1 1 0-8 4 4 0 0 1 0 8m0-2a2 2 0 1 1 0-4 2 2 0 0 1 0 4"
    clip-rule="evenodd"
  />
  <path d="M13 22a2 2 0 0 1 2-2v4a2 2 0 0 1-2-2" />
  <path
    fill-rule="evenodd"
    d="M33 21.236A3 3 0 0 1 31 22h-5v17a3 3 0 1 1-6 0v-8h-1v8c0 .701-.24 1.346-.644 1.857A3 3 0 0 1 13 39V27.718c-1.563-.72-4-2.808-4-6.147C9 17.364 12.871 16 13.985 16H31c.768 0 1.47.289 2 .764V15h-1a3 3 0 0 1-3-3V6h2v6a1 1 0 0 0 1 1h1V6h2v7h1a1 1 0 0 0 1-1V6h2v6a3 3 0 0 1-3 3h-1v26a1 1 0 1 1-2 0zm-19.163 4.665 1.163.536V39a1 1 0 1 0 2 0V29h5v10a1 1 0 1 0 2 0V20h7a1 1 0 1 0 0-2H13.985q.012 0-.008.003c-.049.007-.24.037-.543.15a4.3 4.3 0 0 0-1.126.63c-.703.55-1.308 1.394-1.308 2.788 0 2.283 1.693 3.803 2.837 4.33"
    clip-rule="evenodd"
  />
</svg>
